X: 41602
T: Up Downey
R: reel
M: 4/4
K: Edorian
e2f|:gfeg fegf|egfe a3f|gfeg fegf|egfe B3f|
gfeg fegf|egfe a3a|bagf agfg|e2 ed e3f:|
EFGA B2 dB|A2 FA GFEF|EFGA (3Bcd ef|gfed ea a2|
EFGA B2 dB|A2 FA GFEF|EFGA (3Bcd ed|BAGF EB,B,B,:|

